static/images/content_search.svg

<?xml version="1.0" encoding="UTF-8" standalone="no"?>
<!DOCTYPE svg PUBLIC "-//W3C//DTD SVG 1.1//EN" "http://www.w3.org/Graphics/SVG/1.1/DTD/svg11.dtd">

<!-- Created with Vectornator (http://vectornator.io/) -->
<svg stroke-miterlimit="10" style="fill-rule:nonzero;clip-rule:evenodd;stroke-linecap:round;stroke-linejoin:round;" version="1.1" viewBox="0 0 46 46" xml:space="preserve" xmlns="http://www.w3.org/2000/svg" xmlns:vectornator="http://vectornator.io" xmlns:xlink="http://www.w3.org/1999/xlink">
<metadata>
<vectornator:setting key="IsTimeLapseWatermarkDisabled" value="false"/>
<vectornator:setting key="UndoHistoryDisabled" value="true"/>
<vectornator:setting key="VNDimensionsVisible" value="true"/>
<vectornator:setting key="VNSnapToGuides" value="true"/>
<vectornator:setting key="WDCMYKEnabledKey" value="false"/>
<vectornator:setting key="WDDisplayWhiteBackground" value="false"/>
<vectornator:setting key="WDDynamicGuides" value="false"/>
<vectornator:setting key="WDGuidesVisible" value="true"/>
<vectornator:setting key="WDIsolateActiveLayer" value="false"/>
<vectornator:setting key="WDOutlineMode" value="false"/>
<vectornator:setting key="WDRulersVisible" value="true"/>
<vectornator:setting key="WDSnapToEdges" value="false"/>
<vectornator:setting key="WDSnapToGrid" value="false"/>
<vectornator:setting key="WDSnapToPoints" value="false"/>
<vectornator:setting key="WDUnits" value="Points"/>
</metadata>
<defs/>
<g id="Untitled" vectornator:layerName="Untitled">
<path d="M6 41.3L6 6.2L18.2 6.2C18.4333 5.03333 19.0083 4.075 19.925 3.325C20.8417 2.575 21.9 2.2 23.1 2.2C24.3 2.2 25.3583 2.575 26.275 3.325C27.1917 4.075 27.7667 5.03333 28 6.2L41.1 6.2L41.1 21.5L38.1 21.5L38.1 9.2L32.8 9.2L32.8 15.7L14.3 15.7L14.3 9.2L9 9.2L9 38.3L21.5 38.3L21.5 41.3L6 41.3ZM43.9 46L37.9 40C37.2333 40.5333 36.475 40.9167 35.625 41.15C34.775 41.3833 33.9 41.5 33 41.5C30.6333 41.5 28.625 40.675 26.975 39.025C25.325 37.375 24.5 35.3667 24.5 33C24.5 30.6333 25.325 28.625 26.975 26.975C28.625 25.325 30.6333 24.5 33 24.5C35.3667 24.5 37.375 25.325 39.025 26.975C40.675 28.625 41.5 30.6333 41.5 33C41.5 33.9 41.3833 34.775 41.15 35.625C40.9167 36.475 40.5333 37.2333 40 37.9L46 43.9L43.9 46ZM33 38.5C34.5667 38.5 35.875 37.975 36.925 36.925C37.975 35.875 38.5 34.5667 38.5 33C38.5 31.4333 37.975 30.125 36.925 29.075C35.875 28.025 34.5667 27.5 33 27.5C31.4333 27.5 30.125 28.025 29.075 29.075C28.025 30.125 27.5 31.4333 27.5 33C27.5 34.5667 28.025 35.875 29.075 36.925C30.125 37.975 31.4333 38.5 33 38.5ZM24 9C24.5667 9 25.0417 8.80833 25.425 8.425C25.8083 8.04167 26 7.56667 26 7C26 6.43333 25.8083 5.95833 25.425 5.575C25.0417 5.19167 24.5667 5 24 5C23.4333 5 22.9583 5.19167 22.575 5.575C22.1917 5.95833 22 6.43333 22 7C22 7.56667 22.1917 8.04167 22.575 8.425C22.9583 8.80833 23.4333 9 24 9Z" fill="#ffffff" fill-rule="evenodd" opacity="1" stroke="none"/>
</g>
</svg>

<svg xmlns="http://www.w3.org/2000/svg" height="48" width="48"><path d="M6 41.3V6.2h12.2q.35-1.75 1.725-2.875T23.1 2.2q1.8 0 3.175 1.125Q27.65 4.45 28 6.2h13.1v15.3h-3V9.2h-5.3v6.5H14.3V9.2H9v29.1h12.5v3ZM43.9 46l-6-6q-1 .8-2.275 1.15-1.275.35-2.625.35-3.55 0-6.025-2.475Q24.5 36.55 24.5 33q0-3.55 2.475-6.025Q29.45 24.5 33 24.5q3.55 0 6.025 2.475Q41.5 29.45 41.5 33q0 1.35-.35 2.625T40 37.9l6 6ZM33 38.5q2.35 0 3.925-1.575Q38.5 35.35 38.5 33q0-2.35-1.575-3.925Q35.35 27.5 33 27.5q-2.35 0-3.925 1.575Q27.5 30.65 27.5 33q0 2.35 1.575 3.925Q30.65 38.5 33 38.5ZM24 9q.85 0 1.425-.575Q26 7.85 26 7q0-.85-.575-1.425Q24.85 5 24 5q-.85 0-1.425.575Q22 6.15 22 7q0 .85.575 1.425Q23.15 9 24 9Z"/></svg>
